Papirus/22x22/panel/flareget-panel.svg

<?xml version="1.0" encoding="UTF-8" standalone="no"?>
<svg id="svg7384" xmlns:rdf="http://www.w3.org/1999/02/22-rdf-syntax-ns#" style="enable-background:new" xmlns="http://www.w3.org/2000/svg" height="22" width="22" version="1.1" xmlns:cc="http://creativecommons.org/ns#" xmlns:dc="http://purl.org/dc/elements/1.1/">
 <metadata id="metadata90">
  <rdf:RDF>
   <cc:Work rdf:about="">
    <dc:format>image/svg+xml</dc:format>
    <dc:type rdf:resource="http://purl.org/dc/dcmitype/StillImage"/>
   </cc:Work>
  </rdf:RDF>
 </metadata>
 <g id="layer12" transform="matrix(1.2 0 0 1.3333 -608.2 -58.333)">
  <path id="path8912" opacity="1e6" style="color:#ffffff;enable-background:new" d="m8 3v9h-3l6 7 6-7h-3v-9h-6zm1 1h1 3v1h-3v2h2v1h-2v4h-1v-4-1-2-1z" transform="matrix(.83333 0 0 0.75 506.83 43.75)" fill="#fff"/>
 </g>
</svg>

<?xml version="1.0" encoding="UTF-8" standalone="no"?>
<svg xmlns:dc="http://purl.org/dc/elements/1.1/" xmlns:cc="http://creativecommons.org/ns#" xmlns:rdf="http://www.w3.org/1999/02/22-rdf-syntax-ns#" xmlns:svg="http://www.w3.org/2000/svg" xmlns="http://www.w3.org/2000/svg" version="1.1" width="22" height="22" style="enable-background:new" id="svg7384">
    <metadata id="metadata90">
        <rdf:RDF>
            <cc:Work rdf:about="">
                <dc:format>
                    image/svg+xml
                </dc:format>
                <dc:type rdf:resource="http://purl.org/dc/dcmitype/StillImage"/>
                <dc:title>
                    Paper Symbolic Icon Theme
                </dc:title>
            </cc:Work>
        </rdf:RDF>
    </metadata>
    <title id="title8473">
        Paper Symbolic Icon Theme
    </title>
    <g transform="matrix(1.2,0,0,1.3333333,-608.2,-58.333332)" id="layer12">
        <path id="path8912" transform="matrix(0.83333333,0,0,0.75000002,506.83333,43.75)" d="M 8 3 L 8 12 L 5 12 L 11 19 L 17 12 L 14 12 L 14 3 L 8 3 z M 9 4 L 10 4 L 13 4 L 13 5 L 10 5 L 10 7 L 12 7 L 12 8 L 10 8 L 10 12 L 9 12 L 9 8 L 9 7 L 9 5 L 9 4 z " style="color:#ffffff;opacity:1000002;fill:#ffffff;enable-background:new"/>
    </g>
</svg>
